<?xml version="1.0" encoding="UTF-8"?>
<map version="1.10" tiledversion="1.11.2" orientation="orthogonal" renderorder="right-down" width="30" height="20" tilewidth="16" tileheight="16" infinite="0" nextlayerid="2" nextobjectid="1">
 <tileset firstgid="1" source="../tilesets/sampleSheet.tsx"/>
 <tileset firstgid="133" source="../../../../../../Downloads/kenney_tiny-dungeon/Tiled/sampleSheet.tsx"/>
 <layer id="1" name="Camada de Blocos 1" width="30" height="20">
  <data encoding="csv">
1610612740,3,3,3,3,3,7,3,3,3,3,3,3,3,3,3,3,3,3,3,3,3,3,7,3,3,3,3,3,4,
1610612739,173,173,161,173,173,151,173,173,173,162,173,173,153,179,180,153,173,173,162,173,173,173,151,173,173,161,173,173,2684354563,
1610612739,1610612921,183,183,183,183,163,183,183,184,183,183,183,165,183,183,165,184,183,183,183,183,183,163,183,183,183,183,185,2684354563,
1610612739,1610612919,181,181,181,181,181,181,181,181,181,181,181,181,181,181,181,181,181,181,181,181,181,181,181,181,181,181,2684354743,2684354563,
1610612739,1610612919,181,181,181,181,182,181,181,181,181,181,181,182,181,181,181,181,181,175,181,181,181,182,181,181,181,181,2684354744,2684354563,
1610612739,1610612920,181,181,181,181,181,181,181,182,181,181,181,181,181,181,181,181,181,181,181,181,181,181,175,181,181,181,2684354743,2684354563,
1610612739,1610612919,181,181,181,181,181,175,181,181,181,181,181,181,181,181,181,181,181,181,181,181,181,181,181,181,181,181,2684354743,2684354563,
1610612739,1610612919,181,181,181,182,181,181,181,181,181,181,181,181,181,181,181,181,181,181,181,181,181,181,181,181,181,181,2684354744,2684354563,
1610612739,1610612919,181,181,181,181,181,181,181,181,181,181,181,181,181,181,181,181,181,181,181,181,181,181,181,181,181,181,2684354743,2684354563,
1610612739,1610612919,181,181,181,181,181,181,181,181,181,181,181,181,181,181,181,181,181,181,181,181,181,181,181,182,181,181,2684354743,2684354563,
1610612739,1610612919,181,181,181,181,181,181,181,181,181,181,181,181,181,181,181,181,181,181,181,182,181,181,181,181,181,181,2684354743,2684354563,
1610612739,1610612920,181,181,181,181,181,181,181,181,181,181,181,181,181,181,181,181,181,181,181,181,181,181,181,181,181,181,2684354743,2684354563,
1610612739,1610612919,181,182,181,181,181,181,175,181,181,181,181,181,181,182,181,181,181,181,181,181,181,181,181,181,181,181,2684354743,2684354563,
1610612739,1610612919,181,181,181,181,181,181,181,181,181,181,181,181,181,181,181,181,181,181,181,181,181,181,182,181,181,181,2684354744,2684354563,
1610612739,1610612919,181,181,181,181,181,181,181,181,181,181,181,181,181,181,181,182,181,181,181,181,181,181,181,181,181,181,2684354743,2684354563,
1610612739,1610612919,181,181,181,181,181,181,182,181,181,181,181,181,181,181,181,181,181,181,181,181,181,181,175,181,181,181,2684354743,2684354563,
1610612739,1610612920,181,181,181,181,181,181,181,181,181,181,181,175,181,181,181,181,181,181,182,181,181,181,181,181,181,181,2684354744,2684354563,
1610612739,1610612919,181,181,181,175,181,181,181,181,181,181,181,181,181,181,181,181,181,181,181,181,181,181,181,181,181,181,2684354743,2684354563,
1610612739,3221225657,3221225655,3221225655,3221225656,3221225655,3221225655,3221225655,3221225655,3221225655,3221225656,3221225655,3221225655,3221225655,3221225655,3221225655,3221225655,3221225655,3221225656,3221225655,3221225655,3221225655,3221225655,3221225656,3221225655,3221225655,3221225655,3221225655,2684354745,2684354563,
3221225476,3221225475,3221225475,3221225475,3221225475,3221225475,3221225475,3221225475,3221225475,3221225475,3221225475,3221225475,3221225475,3221225475,3221225475,3221225475,3221225475,3221225475,3221225475,3221225475,3221225475,3221225475,3221225475,3221225475,3221225475,3221225475,3221225475,3221225475,3221225475,2684354564
</data>
 </layer>
</map>
